src/assets/duotone/Google1.svg

<svg width="24" height="24" viewBox="0 0 24 24"  xmlns="http://www.w3.org/2000/svg">
<path opacity="0.4" d="M7.7002 15.7109L4.59021 21.0009L1.41016 15.7109H7.7002Z" />
<path d="M12.0002 8.41L7.7002 15.71H1.41016L8.82019 3L12.0002 8.41Z" />
<path opacity="0.4" d="M15.1803 3L12.0003 8.41L8.82031 3H15.1803Z" />
<path d="M22.59 15.63C22.59 15.63 22.57 15.66 22.53 15.71H16.3L12 8.41L15.18 3C15.18 3 22.54 15.63 22.59 15.63Z" />
<path opacity="0.4" d="M22.5303 15.7109C22.1103 16.3709 19.4103 21.0009 19.4103 21.0009L16.3003 15.7109H22.5303Z" />
<path d="M19.4103 21.0009H4.59033L7.70032 15.7109H16.3003L19.4103 21.0009Z" />
<path opacity="0.4" d="M16.3002 15.7102H7.7002L12.0002 8.41016L16.3002 15.7102Z" />
</svg>

<?xml version="1.0" encoding="UTF-8"?>
<svg width="24" height="24" viewBox="0 0 24 24" xmlns="http://www.w3.org/2000/svg">
 <path d="m7.7002 15.711-3.11 5.29-3.18-5.29h6.29z" opacity=".4"/>
 <path d="m12 8.41-4.3 7.3h-6.29l7.41-12.71 3.18 5.41z"/>
 <path d="m15.18 3-3.18 5.41-3.18-5.41h6.36z" opacity=".4"/>
 <path d="m22.59 15.63s-0.02 0.03-0.06 0.08h-6.23l-4.3-7.3 3.18-5.41s7.36 12.63 7.41 12.63z"/>
 <path d="m22.53 15.711c-0.42 0.66-3.12 5.29-3.12 5.29l-3.11-5.29h6.23z" opacity=".4"/>
 <path d="m19.41 21.001h-14.82l3.11-5.29h8.6l3.11 5.29z"/>
 <path d="m16.3 15.71h-8.6l4.3-7.3 4.3 7.3z" opacity=".4"/>
</svg>
